src/lib/packages/icons/src/assets/line/bolt-circle-alt.svg

<svg xmlns="http://www.w3.org/2000/svg" width="24" height="24" fill="none"><path fill="currentColor" d="M12 1.25C6.072 1.25 1.25 6.072 1.25 12S6.072 22.75 12 22.75 22.75 17.928 22.75 12 17.928 1.25 12 1.25Zm0 20c-5.101 0-9.25-4.149-9.25-9.25S6.899 2.75 12 2.75s9.25 4.149 9.25 9.25-4.149 9.25-9.25 9.25Zm4.278-10.611h-2.306V6.5a.749.749 0 0 0-1.307-.502l-5.5 6.111a.75.75 0 0 0 .558 1.252h2.306V17.5a.749.749 0 0 0 1.308.502l5.5-6.111a.75.75 0 0 0-.559-1.252Zm-4.75 4.907v-2.935a.75.75 0 0 0-.75-.75H9.406l3.066-3.407v2.935c0 .415.336.75.75.75h1.372l-3.066 3.407Z"/></svg>

<svg width="24" height="24" viewBox="0 0 24 24" fill="none" xmlns="http://www.w3.org/2000/svg">
<path d="M12 1.25C6.072 1.25 1.25 6.072 1.25 12C1.25 17.928 6.072 22.75 12 22.75C17.928 22.75 22.75 17.928 22.75 12C22.75 6.072 17.928 1.25 12 1.25ZM12 21.25C6.899 21.25 2.75 17.101 2.75 12C2.75 6.899 6.899 2.75 12 2.75C17.101 2.75 21.25 6.899 21.25 12C21.25 17.101 17.101 21.25 12 21.25ZM16.278 10.639H13.972V6.5C13.972 6.189 13.781 5.911 13.491 5.8C13.201 5.689 12.873 5.768 12.665 5.998L7.16498 12.109C6.96698 12.329 6.91703 12.645 7.03802 12.916C7.15902 13.187 7.42702 13.361 7.72302 13.361H10.029V17.5C10.029 17.811 10.22 18.089 10.51 18.2C10.597 18.234 10.688 18.25 10.779 18.25C10.987 18.25 11.192 18.163 11.337 18.002L16.837 11.891C17.035 11.671 17.085 11.355 16.964 11.084C16.842 10.813 16.574 10.639 16.278 10.639ZM11.528 15.546V12.611C11.528 12.196 11.192 11.861 10.778 11.861H9.40601L12.472 8.45399V11.389C12.472 11.804 12.808 12.139 13.222 12.139H14.594L11.528 15.546Z" fill="currentColor"/>
</svg>
